contributed-vectors/i_love_hue_too.svg

<svg width="192" height="192" version="1.1" viewBox="0 0 192 192" xmlns="http://www.w3.org/2000/svg">
 <path d="m76 144 4 17.594c8.2134 6.3336 13.914 9.8203 13.914 9.8203 1.2805 0.78252 2.8913 0.78252 4.1719 0 0 0 5.7007-3.4867 13.914-9.8203l4-17.594z" style="fill:#96dfd3;paint-order:stroke fill markers"/>
 <rect x="76" y="76" width="40" height="40" style="fill:#b1b5bd;paint-order:stroke fill markers"/>
 <rect x="76" y="112" width="40" height="32" style="fill:#a3cac8;paint-order:stroke fill markers;stroke-width:1.118"/>
 <rect x="48" y="76" width="32" height="40" style="fill:#d4bba5;paint-order:stroke fill markers;stroke-width:1.118"/>
 <rect x="76" y="48" width="40" height="32" style="fill:#b7a8de;paint-order:stroke fill markers"/>
 <rect x="112" y="76" width="32" height="40" style="fill:#92a1be;paint-order:stroke fill markers;stroke-width:1.118"/>
 <path d="m48 22.51c-6.1218 2.054-11.49 5.3236-15.828 9.6621-4.3388 4.3388-7.6081 9.7058-9.6621 15.828h25.49v-25.49z" style="fill:#ff837d;paint-order:stroke fill markers"/>
 <rect x="48" y="48" width="32" height="32" style="fill:#d9a5b2;paint-order:stroke fill markers"/>
 <path d="m80 22.5-4 25.5h40l-4-25.5c-7.4912 2.4013-12.961 5.9988-16 8.3359-3.0392-2.3371-8.5088-5.9347-16-8.3359z" style="fill:#bd9aff;paint-order:stroke fill markers"/>
 <path d="m64 20c-5.7274 0-11.104 0.86709-16 2.5098v25.49h32v-25.5c-4.6012-1.4749-9.9618-2.5-16-2.5z" style="fill:#de8fbe;paint-order:stroke fill markers"/>
 <path d="m21.605 80c2.2913 11.522 6.8759 22.249 12.668 32l13.727 4v-40z" style="fill:#f8c18c;paint-order:stroke fill markers"/>
 <path d="m22.51 48c-1.6424 4.8954-2.5098 10.273-2.5098 16 0 5.4846 0.57549 10.821 1.6055 16h26.395v-32h-25.49z" style="fill:#fca285;paint-order:stroke fill markers"/>
 <rect x="112" y="48" width="32" height="32" style="fill:#9c93ce;paint-order:stroke fill markers"/>
 <path d="m128 20c-6.0382 0-11.399 1.0251-16 2.5v25.5h32v-25.49c-4.8959-1.6427-10.272-2.5098-16-2.5098z" style="fill:#a586de;paint-order:stroke fill markers"/>
 <path d="m144 76v40l13.727-4c5.7921-9.7506 10.377-20.478 12.668-32z" style="fill:#728dbe;paint-order:stroke fill markers"/>
 <path d="m144 48v32h26.395c1.03-5.1792 1.6055-10.515 1.6055-16 0-5.7268-0.86742-11.105-2.5098-16h-25.49z" style="fill:#7f80be;paint-order:stroke fill markers"/>
 <path d="m144 22.51v25.49h25.49c-2.054-6.1224-5.3232-11.489-9.6621-15.828-4.3384-4.3384-9.7065-7.6081-15.828-9.6621z" style="fill:#8c72bd;paint-order:stroke fill markers"/>
 <path d="m48 112v19.168c2.9983 3.5773 6.0667 6.9699 9.1328 10.121 0.90277 0.92782 1.8044 1.8205 2.7051 2.7109h20.162v-32h-32z" style="fill:#b6cdae;paint-order:stroke fill markers"/>
 <path d="m34.273 112c4.1023 6.906 8.812 13.304 13.727 19.168v-19.168h-13.727z" style="fill:#c8cf93;paint-order:stroke fill markers"/>
 <path d="m112 112v32h20.162c0.90071-0.89047 1.8023-1.7831 2.7051-2.7109 3.0661-3.1512 6.1345-6.5438 9.1328-10.121v-19.168h-32z" style="fill:#95b8d3;paint-order:stroke fill markers"/>
 <path d="m144 112v19.168c4.9145-5.8636 9.6242-12.262 13.727-19.168h-13.727z" style="fill:#86a6df;paint-order:stroke fill markers"/>
 <path d="m59.838 144c7.2381 7.1558 14.332 13.098 20.162 17.594v-17.594h-20.162z" style="fill:#97deb6;paint-order:stroke fill markers"/>
 <path d="m112 144v17.594c5.8304-4.496 12.924-10.438 20.162-17.594h-20.162z" style="fill:#98cfe9;paint-order:stroke fill markers"/>
 <path d="m64 48 16 8 16-8-16-8z" style="fill:#cea2c4"/>
 <path d="m32 48 16 8 16-8-16-8z" style="fill:#f09d94"/>
 <path d="m64 80 16 8 16-8-16-8z" style="fill:#c7b3b3"/>
 <path d="m32 80 16 8 16-8-16-8z" style="fill:#ecb694"/>
 <path d="m73.912 20.957 6.0879 3.043 1.7832-0.89258c-2.3951-0.86295-5.03-1.6032-7.8711-2.1504z" style="fill:#d293d4"/>
 <path d="m54.189 20.904c-2.7668 0.52311-5.4195 1.264-7.9297 2.2246l1.7402 0.87109 6.1895-3.0957z" style="fill:#f18898"/>
 <path d="m24.059 44.029c-1.322 2.9463-2.327 6.1088-3.0098 9.4453l10.951-5.4746-7.9414-3.9707z" style="fill:#fd9582"/>
 <path d="m20.68 74.34c0.4525 3.5122 1.1199 6.9572 1.9844 10.328l9.3359-4.668-11.32-5.6602z" style="fill:#f9b589"/>
 <path d="m128 48-16 8-16-8 16-8z" style="fill:#af9cdf"/>
 <path d="m160 48-16 8-16-8 16-8z" style="fill:#9587cb"/>
 <path d="m128 80-16 8-16-8 16-8z" style="fill:#a6a9c3"/>
 <path d="m160 80-16 8-16-8 16-8z" style="fill:#8994c0"/>
 <path d="m118.09 20.957c-2.8411 0.5472-5.476 1.2874-7.8711 2.1504l1.7832 0.89258 6.0879-3.043z" style="fill:#b291f1"/>
 <path d="m137.81 20.904 6.1894 3.0957 1.7402-0.86914c-2.5108-0.96104-5.1621-1.7033-7.9297-2.2266z" style="fill:#997ccf"/>
 <path d="m167.94 44.029-7.9414 3.9707 10.951 5.4746c-0.68277-3.3366-1.6878-6.499-3.0098-9.4453z" style="fill:#837bbd"/>
 <path d="m171.32 74.34-11.32 5.6602 9.3359 4.668c0.86446-3.371 1.5319-6.8159 1.9844-10.328z" style="fill:#6b82b5"/>
 <path d="m64 112 16 8 16-8-16-8z" style="fill:#b6c6b3"/>
 <path d="m48 104-14.238 7.1191c0.49264 0.84488 0.99368 1.6833 1.5039 2.5137l12.734 6.3672 16-8-16-8z" style="fill:#ccca99"/>
 <path d="m64 144 16 8 16-8-16-8z" style="fill:#9bdabd"/>
 <path d="m55.83 139.92c0.43424 0.4549 0.86866 0.92693 1.3027 1.373 1.3738 1.4119 2.7449 2.7649 4.1113 4.0898l2.7559-1.3789-8.1699-4.084z" style="fill:#9fdaa2"/>
 <path d="m128 112-16 8-16-8 16-8z" style="fill:#9fbcc7"/>
 <path d="m144 104-16 8 16 8 12.734-6.3672c0.51022-0.83037 1.0113-1.6688 1.5039-2.5137l-14.238-7.1191z" style="fill:#8caacf"/>
 <path d="m128 144-16 8-16-8 16-8z" style="fill:#97d5d7"/>
 <path d="m136.17 139.92-8.1699 4.084 2.7559 1.3789c1.3664-1.3249 2.7376-2.678 4.1113-4.0898 0.43407-0.44611 0.86849-0.91814 1.3027-1.373z" style="fill:#96c3ea"/>
</svg>

<svg xmlns="http://www.w3.org/2000/svg" width="192" height="192"><path d="m76 144 4 17.594c8.213 6.334 13.914 9.82 13.914 9.82a4 4 0 0 0 4.172 0s5.7-3.486 13.914-9.82L116 144z" style="fill:#96dfd3;paint-order:stroke fill markers"/><path d="M76 76h40v40H76z" style="fill:#b1b5bd;paint-order:stroke fill markers"/><path d="M76 112h40v32H76z" style="fill:#a3cac8;paint-order:stroke fill markers;stroke-width:1.118"/><path d="M48 76h32v40H48z" style="fill:#d4bba5;paint-order:stroke fill markers;stroke-width:1.118"/><path d="M76 48h40v32H76z" style="fill:#b7a8de;paint-order:stroke fill markers"/><path d="M112 76h32v40h-32z" style="fill:#92a1be;paint-order:stroke fill markers;stroke-width:1.118"/><path d="M48 22.51c-6.122 2.054-11.49 5.324-15.828 9.662-4.339 4.339-7.608 9.706-9.662 15.828H48V22.51z" style="fill:#ff837d;paint-order:stroke fill markers"/><path d="M48 48h32v32H48z" style="fill:#d9a5b2;paint-order:stroke fill markers"/><path d="M80 22.5 76 48h40l-4-25.5c-7.491 2.401-12.961 5.999-16 8.336-3.04-2.337-8.509-5.935-16-8.336z" style="fill:#bd9aff;paint-order:stroke fill markers"/><path d="M64 20c-5.727 0-11.104.867-16 2.51V48h32V22.5A52.221 52.221 0 0 0 64 20z" style="fill:#de8fbe;paint-order:stroke fill markers"/><path d="M21.605 80c2.291 11.522 6.876 22.249 12.668 32L48 116V76z" style="fill:#f8c18c;paint-order:stroke fill markers"/><path d="M22.51 48C20.868 52.895 20 58.273 20 64c0 5.485.576 10.821 1.606 16H48V48H22.51z" style="fill:#fca285;paint-order:stroke fill markers"/><path d="M112 48h32v32h-32z" style="fill:#9c93ce;paint-order:stroke fill markers"/><path d="M128 20a52.22 52.22 0 0 0-16 2.5V48h32V22.51c-4.896-1.643-10.272-2.51-16-2.51z" style="fill:#a586de;paint-order:stroke fill markers"/><path d="M144 76v40l13.727-4c5.792-9.75 10.377-20.478 12.668-32z" style="fill:#728dbe;paint-order:stroke fill markers"/><path d="M144 48v32h26.395c1.03-5.18 1.605-10.515 1.605-16 0-5.727-.867-11.105-2.51-16H144z" style="fill:#7f80be;paint-order:stroke fill markers"/><path d="M144 22.51V48h25.49c-2.054-6.122-5.323-11.489-9.662-15.828-4.339-4.338-9.707-7.608-15.828-9.662z" style="fill:#8c72bd;paint-order:stroke fill markers"/><path d="M48 112v19.168a184.466 184.466 0 0 0 9.133 10.121c.903.928 1.804 1.82 2.705 2.71H80v-32H48z" style="fill:#b6cdae;paint-order:stroke fill markers"/><path d="M34.273 112c4.102 6.906 8.812 13.304 13.727 19.168V112H34.273z" style="fill:#c8cf93;paint-order:stroke fill markers"/><path d="M112 112v32h20.162c.9-.89 1.802-1.783 2.705-2.71A184.54 184.54 0 0 0 144 131.167V112h-32z" style="fill:#95b8d3;paint-order:stroke fill markers"/><path d="M144 112v19.168c4.915-5.864 9.624-12.262 13.727-19.168H144z" style="fill:#86a6df;paint-order:stroke fill markers"/><path d="M59.838 144c7.238 7.156 14.332 13.098 20.162 17.594V144H59.838z" style="fill:#97deb6;paint-order:stroke fill markers"/><path d="M112 144v17.594c5.83-4.496 12.924-10.438 20.162-17.594H112z" style="fill:#98cfe9;paint-order:stroke fill markers"/><path d="m64 48 16 8 16-8-16-8z" style="fill:#cea2c4"/><path d="m32 48 16 8 16-8-16-8z" style="fill:#f09d94"/><path d="m64 80 16 8 16-8-16-8z" style="fill:#c7b3b3"/><path d="m32 80 16 8 16-8-16-8z" style="fill:#ecb694"/><path d="M73.912 20.957 80 24l1.783-.893a52.6 52.6 0 0 0-7.871-2.15z" style="fill:#d293d4"/><path d="M54.189 20.904a46.177 46.177 0 0 0-7.93 2.225l1.74.87 6.19-3.095z" style="fill:#f18898"/><path d="M24.059 44.029c-1.322 2.946-2.327 6.109-3.01 9.445L32 48l-7.941-3.971z" style="fill:#fd9582"/><path d="M20.68 74.34a85.565 85.565 0 0 0 1.984 10.328L32 80l-11.32-5.66z" style="fill:#f9b589"/><path d="m128 48-16 8-16-8 16-8z" style="fill:#af9cdf"/><path d="m160 48-16 8-16-8 16-8z" style="fill:#9587cb"/><path d="m128 80-16 8-16-8 16-8z" style="fill:#a6a9c3"/><path d="m160 80-16 8-16-8 16-8z" style="fill:#8994c0"/><path d="M118.09 20.957a52.594 52.594 0 0 0-7.871 2.15l1.783.893 6.088-3.043z" style="fill:#b291f1"/><path d="M137.81 20.904 144 24l1.74-.87a46.153 46.153 0 0 0-7.93-2.226z" style="fill:#997ccf"/><path d="m167.94 44.029-7.941 3.97 10.95 5.475c-.682-3.336-1.687-6.499-3.01-9.445z" style="fill:#837bbd"/><path d="M171.32 74.34 160 80l9.336 4.668a85.584 85.584 0 0 0 1.984-10.328z" style="fill:#6b82b5"/><path d="m64 112 16 8 16-8-16-8z" style="fill:#b6c6b3"/><path d="m48 104-14.238 7.12c.493.844.994 1.682 1.504 2.513L48 120l16-8-16-8z" style="fill:#ccca99"/><path d="m64 144 16 8 16-8-16-8z" style="fill:#9bdabd"/><path d="M55.83 139.92c.434.455.869.927 1.303 1.373a198.537 198.537 0 0 0 4.111 4.09l2.756-1.38-8.17-4.083z" style="fill:#9fdaa2"/><path d="m128 112-16 8-16-8 16-8z" style="fill:#9fbcc7"/><path d="m144 104-16 8 16 8 12.734-6.367c.51-.83 1.011-1.669 1.504-2.514L144 104z" style="fill:#8caacf"/><path d="m128 144-16 8-16-8 16-8z" style="fill:#97d5d7"/><path d="m136.17 139.92-8.17 4.084 2.756 1.379a198.539 198.539 0 0 0 4.111-4.09c.434-.446.869-.918 1.303-1.373z" style="fill:#96c3ea"/></svg>
